resources/svg/church.svg

<svg xmlns="http://www.w3.org/2000/svg" viewBox="0 0 15 15" fill="currentColor"><path d="M7 2V0H8V2H10V3H8V5.20983L14.7481 9.06589L14.252 9.93413L13 9.21873V14H15V15H10V10H5V15H0V14H2V9.21875L0.748092 9.93413L0.251953 9.06589L7 5.20986V3H5V2H7Z" fill="black"/><path d="M6 15H9V11H6V15Z" fill="black"/></svg>

<svg xmlns="http://www.w3.org/2000/svg" viewBox="0 0 15 15" fill="currentColor"><path d="M7 2V0h1v2h2v1H8v2.21l6.748 3.856-.496.868L13 9.22V14h2v1h-5v-5H5v5H0v-1h2V9.219l-1.252.715-.496-.868L7 5.21V3H5V2h2z" fill="currentColor"/><path d="M6 15h3v-4H6v4z" fill="currentColor"/></svg>
